dist/img/circle.svg

<svg width="41" height="41" viewBox="0 0 41 41" fill="none" xmlns="http://www.w3.org/2000/svg">
<path d="M14.8199 33.1844C11.4886 32.017 8.74815 29.9741 6.5985 27.0557C4.44885 24.1373 3.37402 20.8132 3.37402 17.0833C3.37402 16.2292 3.4452 15.3679 3.58756 14.4995C3.72993 13.6311 3.94347 12.784 4.22819 11.9583L1.62298 13.4958L0.170898 11.0188L7.8584 6.53438L12.3001 14.1792L9.78027 15.674L7.47402 11.7021C7.10388 12.5847 6.82628 13.4745 6.64121 14.3714C6.45614 15.2682 6.36361 16.1865 6.36361 17.126C6.36361 20.3149 7.30319 23.1408 9.18236 25.6036C11.0615 28.0665 13.4532 29.7392 16.3574 30.6219L14.8199 33.1844ZM27.0771 11.4031V8.45625H31.6469C30.3372 6.71944 28.7001 5.36701 26.7355 4.39896C24.7709 3.4309 22.6924 2.94688 20.5001 2.94688C18.6209 2.94688 16.8699 3.28142 15.2469 3.95052C13.624 4.61962 12.1862 5.55208 10.9334 6.74792L9.43861 4.14271C10.9476 2.86146 12.6346 1.85069 14.4995 1.11042C16.3645 0.370139 18.3504 0 20.4574 0C22.906 0 25.2193 0.491146 27.3975 1.47344C29.5756 2.45573 31.4619 3.82951 33.0563 5.59479V2.47708H35.9605V11.4031H27.0771ZM25.4542 37.7115L17.7667 33.2698L22.2511 25.625L24.7282 27.0771L22.4646 31.049C25.9383 30.5934 28.8353 29.0488 31.1558 26.4151C33.4763 23.7814 34.6365 20.6851 34.6365 17.126C34.6365 16.5851 34.6009 16.0512 34.5298 15.5245C34.4586 14.9977 34.366 14.4781 34.2521 13.9656H37.2417C37.3556 14.4781 37.441 14.9977 37.498 15.5245C37.5549 16.0512 37.5834 16.5708 37.5834 17.0833C37.5834 21.0979 36.3377 24.6498 33.8464 27.7391C31.3551 30.8283 28.1733 32.8142 24.3011 33.6969L26.949 35.2344L25.4542 37.7115Z" fill="#00E0FF"/>
</svg>

<svg width="41" height="41" fill="none" xmlns="http://www.w3.org/2000/svg"><path d="M14.82 33.184c-3.331-1.167-6.072-3.21-8.222-6.128-2.15-2.919-3.224-6.243-3.224-9.973a15.95 15.95 0 0 1 .854-5.125l-2.605 1.538-1.452-2.477 7.687-4.485L12.3 14.18l-2.52 1.495-2.306-3.972c-.37.883-.648 1.773-.833 2.67a13.595 13.595 0 0 0-.277 2.754c0 3.189.94 6.015 2.818 8.478 1.88 2.463 4.271 4.135 7.175 5.018l-1.537 2.562Zm12.257-21.78V8.455h4.57A13.586 13.586 0 0 0 26.735 4.4 13.925 13.925 0 0 0 20.5 2.947c-1.88 0-3.63.334-5.253 1.004a13.816 13.816 0 0 0-4.314 2.797L9.44 4.143A18.054 18.054 0 0 1 14.5 1.11C16.364.37 18.35 0 20.457 0c2.449 0 4.762.491 6.94 1.473a16.911 16.911 0 0 1 5.66 4.122V2.477h2.904v8.926h-8.884Zm-1.623 26.308-7.687-4.442 4.484-7.645 2.477 1.452-2.263 3.972c3.473-.456 6.37-2 8.69-4.634 2.321-2.634 3.481-5.73 3.481-9.289 0-.54-.035-1.075-.106-1.602a18.77 18.77 0 0 0-.278-1.558h2.99a14.507 14.507 0 0 1 .342 3.118c0 4.014-1.246 7.566-3.738 10.655-2.49 3.09-5.673 5.075-9.545 5.958l2.648 1.537-1.495 2.477Z" fill="#00E0FF"/></svg>
